assets/svg/1F4DD.svg

<svg xmlns="http://www.w3.org/2000/svg" viewBox="0 0 64 64" enable-background="new 0 0 64 64"><path fill="#d0d2d3" d="m47.563 57.54c0 2.805-2.543 5.076-5.679 5.076h-36.2c-3.136 0-5.679-2.271-5.679-5.076v-45.744c0-2.803 2.543-5.076 5.679-5.076h36.21c3.136 0 5.679 2.273 5.679 5.076v45.744z"/><path fill="#eaeae9" d="m47.563 53.962c0 2.805-2.543 5.077-5.679 5.077h-36.2c-3.136 0-5.679-2.272-5.679-5.077v-45.747c0-2.803 2.543-5.074 5.679-5.074h36.21c3.136 0 5.679 2.271 5.679 5.074v45.747z"/><path fill="#d0d2d3" d="m39.58 5.899c0 .337-1.688.612-3.769.612h-24.06c-2.085 0-3.772-.275-3.772-.612v-5.515c0-.339 1.687-.613 3.772-.613h24.06c2.08 0 3.769.274 3.769.613v5.515"/><g fill="#34484c"><path d="m7.161 15.435c10.737 0 21.476 0 32.21 0 2.168 0 2.168-3 0-3-10.733 0-21.472 0-32.21 0-2.163.0001-2.163 3 0 3l0 0"/><path d="m7.161 21.525c10.737 0 21.476 0 32.21 0 2.168 0 2.168-2.998 0-2.998-10.733 0-21.472 0-32.21 0-2.163 0-2.163 2.998 0 2.998l0 0"/><path d="m7.161 27.751c10.737 0 21.476 0 32.21 0 2.168 0 2.168-3 0-3-10.733 0-21.472 0-32.21 0-2.163 0-2.163 3 0 3l0 0"/><path d="m7.161 33.84c10.737 0 21.476 0 32.21 0 2.168 0 2.168-3 0-3-10.733 0-21.472 0-32.21 0-2.163 0-2.163 3 0 3l0 0"/><path d="m7.161 55.856c4.941 0 9.882 0 14.823 0 2.164 0 2.164-2.999 0-2.999-4.941 0-9.882 0-14.823 0-2.163 0-2.163 2.999 0 2.999l0 0"/></g><path fill="#ee4237" d="M32.951 47.24 22.763 37.896 51.992 6.02 62.18 15.369z"/><g fill="#da4241"><path transform="matrix(.7371.6758-.6758.7371 26.23-20.256)" d="m36.746 1.957h4.803v43.25h-4.803z"/><path transform="matrix(.7365.6764-.6764.7365 32.447-23.306)" d="m44.21 8.376h3.864v43.25h-3.864z"/></g><path fill="#e58732" d="m27.858 42.568l5.089 4.662-6.593 2.08-6.58 2.07 1.497-6.735 1.492-6.749z"/><path fill="#ea97bd" d="m63 14.469c-1.188 1.303-3.244 1.352-4.595.115l-5.309-4.871c-1.352-1.233-1.475-3.288-.286-4.588l0 0c1.191-1.299 3.25-1.352 4.596-.113l5.313 4.871c1.348 1.234 1.475 3.287.281 4.586l0 0"/><path transform="matrix(.737.6759-.6759.737 22.873-34.487)" fill="#bcbdbf" d="m48.84 11.401h13.825v1.496h-13.825z"/><g fill="#e7e6e6"><path transform="matrix(.7371.6757-.6757.7371 23.344-33.509)" d="m47.831 12.503h13.823v1.495h-13.823z"/><path d="m61.35 16.271l-10.19-9.345 1.01-1.1 10.19 9.342z"/></g><path fill="#f79420" d="m24.13 47.914l-.582-.544 2.756-6.23 3.806 3.489z"/><path fill="#424143" d="m21.347 44.31l-.072.335-1.501 6.745 6.59-2.08.322-.1z"/></svg>

<?xml version="1.0" encoding="utf-8"?>
<!-- Generator: Adobe Illustrator 16.0.0, SVG Export Plug-In . SVG Version: 6.00 Build 0)  -->
<!DOCTYPE svg PUBLIC "-//W3C//DTD SVG 1.1//EN" "http://www.w3.org/Graphics/SVG/1.1/DTD/svg11.dtd">
<svg version="1.1" id="Layer_1" xmlns="http://www.w3.org/2000/svg" xmlns:xlink="http://www.w3.org/1999/xlink" x="0px" y="0px"
	 width="64px" height="64px" viewBox="0 0 64 64" enable-background="new 0 0 64 64" xml:space="preserve">
<g>
	<g>
		<path fill="#D0D2D3" d="M47.563,57.541c0,2.805-2.543,5.076-5.679,5.076H5.679C2.543,62.617,0,60.346,0,57.541V11.797
			c0-2.803,2.543-5.076,5.679-5.076h36.206c3.136,0,5.679,2.273,5.679,5.076V57.541z"/>
		<path fill="#EAEAE9" d="M47.563,53.962c0,2.805-2.543,5.077-5.679,5.077H5.679C2.543,59.039,0,56.767,0,53.962V8.215
			c0-2.803,2.543-5.074,5.679-5.074h36.206c3.136,0,5.679,2.271,5.679,5.074V53.962z"/>
		<path fill="#D0D2D3" d="M39.58,5.899c0,0.337-1.688,0.612-3.769,0.612H11.755c-2.085,0-3.772-0.275-3.772-0.612V0.384
			c0-0.339,1.687-0.613,3.772-0.613h24.056c2.08,0,3.769,0.274,3.769,0.613V5.899z"/>
		<g>
			<path fill="#34484C" d="M7.161,15.435c10.737,0,21.476,0,32.209,0c2.168,0,2.168-3,0-3c-10.733,0-21.472,0-32.209,0
				C4.998,12.436,4.998,15.435,7.161,15.435L7.161,15.435z"/>
		</g>
		<g>
			<path fill="#34484C" d="M7.161,21.525c10.737,0,21.476,0,32.209,0c2.168,0,2.168-2.998,0-2.998c-10.733,0-21.472,0-32.209,0
				C4.998,18.527,4.998,21.525,7.161,21.525L7.161,21.525z"/>
		</g>
		<g>
			<path fill="#34484C" d="M7.161,27.751c10.737,0,21.476,0,32.209,0c2.168,0,2.168-3.001,0-3.001c-10.733,0-21.472,0-32.209,0
				C4.998,24.75,4.998,27.751,7.161,27.751L7.161,27.751z"/>
		</g>
		<g>
			<path fill="#34484C" d="M7.161,33.84c10.737,0,21.476,0,32.209,0c2.168,0,2.168-3,0-3c-10.733,0-21.472,0-32.209,0
				C4.998,30.84,4.998,33.84,7.161,33.84L7.161,33.84z"/>
		</g>
		<g>
			<path fill="#34484C" d="M7.161,55.856c4.941,0,9.882,0,14.823,0c2.164,0,2.164-2.999,0-2.999c-4.941,0-9.882,0-14.823,0
				C4.998,52.857,4.998,55.856,7.161,55.856L7.161,55.856z"/>
		</g>
	</g>
	<g>
		<polygon fill="#EE4237" points="32.951,47.242 22.763,37.896 51.992,6.021 62.18,15.369 		"/>
		
			<rect x="36.746" y="1.957" transform="matrix(0.7371 0.6758 -0.6758 0.7371 26.2286 -20.2561)" fill="#DA4241" width="4.803" height="43.248"/>
		
			<rect x="44.209" y="8.376" transform="matrix(0.7365 0.6764 -0.6764 0.7365 32.4467 -23.306)" fill="#DA4241" width="3.864" height="43.245"/>
		<polygon fill="#E58732" points="27.858,42.568 32.947,47.234 26.354,49.309 19.774,51.385 21.271,44.645 22.763,37.896 		"/>
		<path fill="#EA97BD" d="M63.002,14.469c-1.188,1.303-3.244,1.352-4.595,0.115l-5.309-4.871c-1.352-1.233-1.475-3.288-0.286-4.588
			l0,0c1.191-1.299,3.25-1.352,4.596-0.113l5.313,4.871C64.069,11.117,64.196,13.17,63.002,14.469L63.002,14.469z"/>
		
			<rect x="48.84" y="11.401" transform="matrix(0.737 0.6759 -0.6759 0.737 22.8735 -34.4868)" fill="#BCBDBF" width="13.825" height="1.496"/>
		
			<rect x="47.831" y="12.503" transform="matrix(0.7371 0.6757 -0.6757 0.7371 23.344 -33.5089)" fill="#E7E6E6" width="13.823" height="1.495"/>
		<polygon fill="#E7E6E6" points="61.351,16.271 51.163,6.926 52.17,5.826 62.363,15.168 		"/>
		<polygon fill="#F79420" points="24.132,47.914 23.548,47.375 26.304,41.143 30.105,44.629 		"/>
		<polygon fill="#424143" points="21.347,44.313 21.275,44.645 19.774,51.387 26.364,49.312 26.686,49.21 		"/>
	</g>
</g>
</svg>
